flags/fr-bre.svg

<svg width="512" height="512" viewBox="0 0 512 512" fill="none" xmlns="http://www.w3.org/2000/svg">
<rect width="512" height="512" fill="var(--flag-palette-black, #333333)"/>
<path d="M0 57H512V114H0V57ZM0 171H512V228H0V171ZM0 285H512V341H0V285ZM0 398H512V455H0V398Z" fill="var(--flag-palette-white, #eeeeee)"/>
<rect width="256" height="227.556" fill="var(--flag-palette-white, #eeeeee)"/>
<path fill-rule="evenodd" clip-rule="evenodd" d="M34.6992 26.4004C38.0129 26.4004 40.6992 23.7141 40.6992 20.4004C40.6992 17.0867 38.0129 14.4004 34.6992 14.4004C31.3855 14.4004 28.6992 17.0867 28.6992 20.4004C28.6992 23.7141 31.3855 26.4004 34.6992 26.4004ZM28.6992 32.4004C28.6992 35.7141 26.0129 38.4004 22.6992 38.4004C19.3855 38.4004 16.6992 35.7141 16.6992 32.4004C16.6992 29.0867 19.3855 26.4004 22.6992 26.4004C26.0129 26.4004 28.6992 29.0867 28.6992 32.4004ZM52.6992 32.4004C52.6992 35.7141 50.0129 38.4004 46.6992 38.4004C43.3855 38.4004 40.6992 35.7141 40.6992 32.4004C40.6992 29.0867 43.3855 26.4004 46.6992 26.4004C50.0129 26.4004 52.6992 29.0867 52.6992 32.4004ZM128 86.0005L109 72.0005L128 32.0005L147 72.0005L128 86.0005ZM140.4 38.4004C143.714 38.4004 146.4 35.7141 146.4 32.4004C146.4 29.0867 143.714 26.4004 140.4 26.4004C137.087 26.4004 134.4 29.0867 134.4 32.4004C134.4 35.7141 137.087 38.4004 140.4 38.4004ZM122.4 32.4004C122.4 35.7141 119.714 38.4004 116.4 38.4004C113.087 38.4004 110.4 35.7141 110.4 32.4004C110.4 29.0867 113.087 26.4004 116.4 26.4004C119.714 26.4004 122.4 29.0867 122.4 32.4004ZM128.4 26.4004C131.714 26.4004 134.4 23.7141 134.4 20.4004C134.4 17.0867 131.714 14.4004 128.4 14.4004C125.087 14.4004 122.4 17.0867 122.4 20.4004C122.4 23.7141 125.087 26.4004 128.4 26.4004ZM222 86.0005L203 72.0005L222 32.0005L241 72.0005L222 86.0005ZM234.1 38.4004C237.413 38.4004 240.1 35.7141 240.1 32.4004C240.1 29.0867 237.413 26.4004 234.1 26.4004C230.786 26.4004 228.1 29.0867 228.1 32.4004C228.1 35.7141 230.786 38.4004 234.1 38.4004ZM216.1 32.4004C216.1 35.7141 213.413 38.4004 210.1 38.4004C206.786 38.4004 204.1 35.7141 204.1 32.4004C204.1 29.0867 206.786 26.4004 210.1 26.4004C213.413 26.4004 216.1 29.0867 216.1 32.4004ZM222.1 26.4004C225.413 26.4004 228.1 23.7141 228.1 20.4004C228.1 17.0867 225.413 14.4004 222.1 14.4004C218.786 14.4004 216.1 17.0867 216.1 20.4004C216.1 23.7141 218.786 26.4004 222.1 26.4004ZM175 152L156 138L175 98.0005L194 138L175 152ZM187.199 104.201C190.513 104.201 193.199 101.514 193.199 98.2007C193.199 94.887 190.513 92.2007 187.199 92.2007C183.886 92.2007 181.199 94.887 181.199 98.2007C181.199 101.514 183.886 104.201 187.199 104.201ZM169.199 98.2007C169.199 101.514 166.513 104.201 163.199 104.201C159.886 104.201 157.199 101.514 157.199 98.2007C157.199 94.887 159.886 92.2007 163.199 92.2007C166.513 92.2007 169.199 94.887 169.199 98.2007ZM175.199 92.2007C178.513 92.2007 181.199 89.5144 181.199 86.2007C181.199 82.887 178.513 80.2007 175.199 80.2007C171.886 80.2007 169.199 82.887 169.199 86.2007C169.199 89.5144 171.886 92.2007 175.199 92.2007ZM82 152L63 138L82 98.0005L100 138L82 152ZM93.5 104.201C96.8137 104.201 99.5 101.514 99.5 98.2007C99.5 94.887 96.8137 92.2007 93.5 92.2007C90.1863 92.2007 87.5 94.887 87.5 98.2007C87.5 101.514 90.1863 104.201 93.5 104.201ZM75.5 98.2007C75.5 101.514 72.8137 104.201 69.5 104.201C66.1863 104.201 63.5 101.514 63.5 98.2007C63.5 94.887 66.1863 92.2007 69.5 92.2007C72.8137 92.2007 75.5 94.887 75.5 98.2007ZM81.5 92.2007C84.8137 92.2007 87.5 89.5144 87.5 86.2007C87.5 82.887 84.8137 80.2007 81.5 80.2007C78.1863 80.2007 75.5 82.887 75.5 86.2007C75.5 89.5144 78.1863 92.2007 81.5 92.2007ZM35 218L16 204L35 164L54 204L35 218ZM46.6992 170C50.0129 170 52.6992 167.314 52.6992 164C52.6992 160.687 50.0129 158 46.6992 158C43.3855 158 40.6992 160.687 40.6992 164C40.6992 167.314 43.3855 170 46.6992 170ZM28.6992 164C28.6992 167.314 26.0129 170 22.6992 170C19.3855 170 16.6992 167.314 16.6992 164C16.6992 160.687 19.3855 158 22.6992 158C26.0129 158 28.6992 160.687 28.6992 164ZM34.6992 158C38.0129 158 40.6992 155.314 40.6992 152C40.6992 148.687 38.0129 146 34.6992 146C31.3855 146 28.6992 148.687 28.6992 152C28.6992 155.314 31.3855 158 34.6992 158ZM128 218L109 204L128 164L147 204L128 218ZM140.4 170C143.714 170 146.4 167.314 146.4 164C146.4 160.687 143.714 158 140.4 158C137.087 158 134.4 160.687 134.4 164C134.4 167.314 137.087 170 140.4 170ZM122.4 164C122.4 167.314 119.714 170 116.4 170C113.087 170 110.4 167.314 110.4 164C110.4 160.687 113.087 158 116.4 158C119.714 158 122.4 160.687 122.4 164ZM128.4 158C131.714 158 134.4 155.314 134.4 152C134.4 148.687 131.714 146 128.4 146C125.087 146 122.4 148.687 122.4 152C122.4 155.314 125.087 158 128.4 158ZM222 218L203 204L222 164L241 204L222 218ZM234.1 170C237.413 170 240.1 167.314 240.1 164C240.1 160.687 237.413 158 234.1 158C230.786 158 228.1 160.687 228.1 164C228.1 167.314 230.786 170 234.1 170ZM216.1 164C216.1 167.314 213.413 170 210.1 170C206.786 170 204.1 167.314 204.1 164C204.1 160.687 206.786 158 210.1 158C213.413 158 216.1 160.687 216.1 164ZM222.1 158C225.413 158 228.1 155.314 228.1 152C228.1 148.687 225.413 146 222.1 146C218.786 146 216.1 148.687 216.1 152C216.1 155.314 218.786 158 222.1 158ZM16 72.0005L35 86.0005L54 72.0005L35 32.0005L16 72.0005Z" fill="var(--flag-palette-black, #333333)"/>
</svg>

<svg xmlns="http://www.w3.org/2000/svg" width="512" height="512" fill="none"><path fill="var(--flag-palette-black, #333333)" d="M0 0h512v512H0z"/><path fill="var(--flag-palette-white, #eeeeee)" d="M0 57h512v57H0zm0 114h512v57H0zm0 114h512v56H0zm0 113h512v57H0z"/><path fill="var(--flag-palette-white, #eeeeee)" d="M0 0h256v227.6H0z"/><path fill="var(--flag-palette-black, #333333)" fill-rule="evenodd" d="M34.7 26.4a6 6 0 1 0 0-12 6 6 0 0 0 0 12m-6 6a6 6 0 1 1-12 0 6 6 0 0 1 12 0m24 0a6 6 0 1 1-12 0 6 6 0 0 1 12 0M128 86l-19-14 19-40 19 40zm12.4-47.6a6 6 0 1 0 0-12 6 6 0 0 0 0 12m-18-6a6 6 0 1 1-12 0 6 6 0 0 1 12 0m6-6a6 6 0 1 0 0-12 6 6 0 0 0 0 12M222 86l-19-14 19-40 19 40zm12.1-47.6a6 6 0 1 0 0-12 6 6 0 0 0 0 12m-18-6a6 6 0 1 1-12 0 6 6 0 0 1 12 0m6-6a6 6 0 1 0 0-12 6 6 0 0 0 0 12M175 152l-19-14 19-40 19 40zm12.2-47.8a6 6 0 1 0 0-12 6 6 0 0 0 0 12m-18-6a6 6 0 1 1-12 0 6 6 0 0 1 12 0m6-6a6 6 0 1 0 0-12 6 6 0 0 0 0 12M82 152l-19-14 19-40 18 40zm11.5-47.8a6 6 0 1 0 0-12 6 6 0 0 0 0 12m-18-6a6 6 0 1 1-12 0 6 6 0 0 1 12 0m6-6a6 6 0 1 0 0-12 6 6 0 0 0 0 12M35 218l-19-14 19-40 19 40zm11.7-48a6 6 0 1 0 0-12 6 6 0 0 0 0 12m-18-6a6 6 0 1 1-12 0 6 6 0 0 1 12 0m6-6a6 6 0 1 0 0-12 6 6 0 0 0 0 12m93.3 60-19-14 19-40 19 40zm12.4-48a6 6 0 1 0 0-12 6 6 0 0 0 0 12m-18-6a6 6 0 1 1-12 0 6 6 0 0 1 12 0m6-6a6 6 0 1 0 0-12 6 6 0 0 0 0 12m93.6 60-19-14 19-40 19 40zm12.1-48a6 6 0 1 0 0-12 6 6 0 0 0 0 12m-18-6a6 6 0 1 1-12 0 6 6 0 0 1 12 0m6-6a6 6 0 1 0 0-12 6 6 0 0 0 0 12M16 72l19 14 19-14-19-40z" clip-rule="evenodd"/></svg>
